!!!OTL: Manshan cuizhu qingyouqing
!!!ARE: Asia, China, Fujian Liancheng
!! II, 562 
!!!SCT: C1987
!!!YEM: Copyright 1995, estate of Helmut Schaffrath.
**kern
*ICvox
*Ivox
!! Mixed meters:  2/4; 3/4
*M2/4
*k[f#c#]
*D:
{8ee
8ee
16ee
8.dd
=1
*M3/4
8ee
16dd
16ee
8.ee
16b
4a}
=2
*M2/4
{8dd
8ee
16ee
8dd
16ee
=3
8dd
16b
16a
[4b
=4
2b]
=5
8a
[4.a
=6
4a]
4r}
=7
{8ee
8ee
16ee
8.dd
=8
*M3/4
8dd
8ee
8.ee
16b
4a}
=9
*M2/4
{8dd
8ee
8dd
16dd
16ee
=10
8.dd
16dd
[4b
=11
2b]
=12
8a
[4.a
=13
4a]
4r}
==
!!!AGN: Shange, Xinquan shange
!!!AMT: irregular
!!!AIN: vox
!!!EED: Helmut Schaffrath
!!!EEV: 1.0
*-
!!!ONB: Tied note syntax fixed by Craig Sapp, 2004/05/03/
